src/pos-icons/standard-definition.svg

<svg height="24" viewBox="0 0 24 24" width="24" xmlns="http://www.w3.org/2000/svg"><path d="m13 7h3a3 3 0 0 1 3 3v4a3 3 0 0 1 -3 3h-3zm3 8a1 1 0 0 0 1-1v-4a1 1 0 0 0 -1-1h-1v6zm-9-8h4v2h-4v2h2a2 2 0 0 1 2 2v2a2 2 0 0 1 -2 2h-4v-2h4v-2h-2a2 2 0 0 1 -2-2v-2a2 2 0 0 1 2-2z"/></svg>

<?xml version="1.0" encoding="UTF-8"?><!DOCTYPE svg PUBLIC "-//W3C//DTD SVG 1.1//EN" "http://www.w3.org/Graphics/SVG/1.1/DTD/svg11.dtd"><svg xmlns="http://www.w3.org/2000/svg" xmlns:xlink="http://www.w3.org/1999/xlink" version="1.1" id="mdi-standard-definition" width="24" height="24" viewBox="0 0 24 24"><path d="M13,7H16A3,3 0 0,1 19,10V14A3,3 0 0,1 16,17H13V7M16,15A1,1 0 0,0 17,14V10A1,1 0 0,0 16,9H15V15H16M7,7H11V9H7V11H9A2,2 0 0,1 11,13V15A2,2 0 0,1 9,17H5V15H9V13H7A2,2 0 0,1 5,11V9A2,2 0 0,1 7,7Z" /></svg>
